X:1
T:Let Your Light Shine Out
T:Let Your Light Shine Out
T:Matthew Lindsay McPhail
T:Mrs. M. L. Herr, 1897
T:Public Domain Courtesy of the Cyber Hymnal™
T:Public Domain Courtesy of the Cyber Hymnal™
C:Matthew Lindsay McPhail
Z:Public Domain
Z:Courtesy of the Cyber Hymnal™
%%score 1 ( 2 3 )
L:1/8
Q:1/4=102
M:4/4
K:Ab
V:1 treble 
V:2 bass 
V:3 bass 
V:1
 [A,C]>[B,D] | [CE]2 [CE]>[DF] [CE]2 [CA]>[DB] | [Ec]3 [Ec] [DB][FA][EG][DF] | %3
w: 1.~Have you|en- tered the race for the|prize, my bro- ther, For the|
w: 2.~Does the|path- way seem te- dious and|lone, my bro- ther, Are you|
w: 3.~There are|pil- grims who need kind- ly|words, my bro- ther, Like our|
w: 4.~Time for|win- ning the prize, is but|short, my bro- ther, Then so|
w: 5.~Then be|vi- gi- lant, loy- al, and|firm, my bro- ther, For the|
 [CE]2 [EA]>[EB] [Ec]2 [EA]2 | [EB]6 [A,C]>[B,D] | [CE]2 [CE]>[DF] [CE]2 [CA]>[DB] | %6
w: crown of im- mor- tal|life? Do you|ear- nest- ly run for the|
w: wea- ry, per- plexed or|faint? Be cour-|age- ous, for Christ is at|
w: Lord, let us cheer and|bless; An- y|sea- son, or place we can|
w: run that you may ob-|tain; Keep your|eyes fixed on Je- sus a-|
w: en- e- my lies in|wait; Ev- er|wear the whole ar- mor of|
 [Ec]3 [Ec] [DB][FA][EG][DF] | [CE]2 [CA]>[Fd] !fermata![Ec]2 !fermata![EB]2 | [EA]6 || %9
w: goal, my bro- ther? Are you|fear- less a- mid earth’s|strife?|
w: hand, my bro- ther, To de-|liv- er each bur- dened|saint.|
w: serve, my bro- ther, Sure- ly|makes our own bur- den|less.|
w: lone, my bro- ther; He will|make all your path- way|plain.|
w: God, my bro- ther, And your|vic- to- ry will be|great.|
"^Refrain" [Ec]>[Ec] | [Fd]2 [Fd]2 [Fd]2 [Fd]>[Fd] x | [Ec]3 [Ec] [Ec][Ec][Ec][Ec] | %12
w: |||
w: |||
w: Let your|light shine out clean and|bright, my bro- ther, As you|
w: |||
w: |||
 [EB]2 [EB]>[EB] [=DB]2 [Ec][F=d] | [Ee]6 [DE]>[DE] | [CE]2 [CE]>[DF] [CE]2 [CA]>[DB] | %15
w: |||
w: |||
w: tra- vel thro’ dark- ness and|doubt; There are|sha- dows that you may dis-|
w: |||
w: |||
 [Ec]3 [Ec] [DB][FA][EG][DF] | [CE]2 [CA]>[Fd] !fermata![Ec]2 !fermata![EB]2 | [EA]6 |] %18
w: |||
w: |||
w: pel, my bro- ther; Jesus says,|“Let your light shine out.”||
w: |||
w: |||
V:2
 [A,,E,]>[A,,E,] | [A,,A,]2 [A,,A,]>[A,,A,] [A,,A,]2 [A,,E,]>[A,,E,] | %2
 [A,,A,]3 [A,,A,] [D,F,][D,A,][D,A,][D,A,] | [A,,A,]2 [C,A,]>[E,G,] A,2 [C,A,]2 | %4
 G,6 [C,E,]>[B,,E,] | [A,,A,]2 [A,,A,]>[A,,A,] [A,,A,]2 [A,,E,]>[A,,E,] | %6
 [A,,A,]3 [A,,A,] [D,A,][D,A,][D,A,][D,A,] | %7
 [E,A,]2 [F,A,]>[D,A,] !fermata![E,A,]2 !fermata![E,D]2 | [A,,C]6 || [A,,A,]>[A,,A,] | %10
 [D,A,]2 [D,A,]2 A,3 [F,A,]>[G,A,] | A,3 A, A,A,[A,,A,][A,,A,] | %12
 [B,,G,]2 [B,,G,]>[B,,G,] [B,,A,]2 [B,,A,][B,,A,] | [E,G,]6 [E,G,]>[E,G,] | %14
 [A,,A,]2 [A,,A,]>[A,,A,] [A,,A,]2 [A,,E,]>[A,,E,] | [A,,A,]3 [A,,A,] [D,A,][D,A,][D,A,][D,A,] | %16
 [E,A,]2 [F,A,]>[D,A,] !fermata![E,A,]2 !fermata![E,D]2 | [A,,C]6 |] %18
V:3
 x2 | x8 | x8 | x4 A,2 x2 | (E,4 D,C,) x2 | x8 | x8 | x8 | x6 || x2 | x4 (D,E,) x3 | %11
 A,3 A, A,A, x2 | x8 | x8 | x8 | x8 | x8 | x6 |] %18

